icons/circle/48/scuolabook.svg

<svg xmlns="http://www.w3.org/2000/svg" viewBox="0 0 48 48">
 <defs>
  <linearGradient id="linearGradient3869" y1="47" x2="0" y2="1" gradientUnits="userSpaceOnUse">
   <stop style="stop-color:#ef1b1b;stop-opacity:1"/>
   <stop offset="1" style="stop-color:#f02e2e;stop-opacity:1"/>
  </linearGradient>
 </defs>
 <g>
  <path d="m 36.31 5 c 5.859 4.062 9.688 10.831 9.688 18.5 c 0 12.426 -10.07 22.5 -22.5 22.5 c -7.669 0 -14.438 -3.828 -18.5 -9.688 c 1.037 1.822 2.306 3.499 3.781 4.969 c 4.085 3.712 9.514 5.969 15.469 5.969 c 12.703 0 23 -10.298 23 -23 c 0 -5.954 -2.256 -11.384 -5.969 -15.469 c -1.469 -1.475 -3.147 -2.744 -4.969 -3.781 z m 4.969 3.781 c 3.854 4.113 6.219 9.637 6.219 15.719 c 0 12.703 -10.297 23 -23 23 c -6.081 0 -11.606 -2.364 -15.719 -6.219 c 4.16 4.144 9.883 6.719 16.219 6.719 c 12.703 0 23 -10.298 23 -23 c 0 -6.335 -2.575 -12.06 -6.719 -16.219 z" style="opacity:0.05"/>
  <path d="m 41.28 8.781 c 3.712 4.085 5.969 9.514 5.969 15.469 c 0 12.703 -10.297 23 -23 23 c -5.954 0 -11.384 -2.256 -15.469 -5.969 c 4.113 3.854 9.637 6.219 15.719 6.219 c 12.703 0 23 -10.298 23 -23 c 0 -6.081 -2.364 -11.606 -6.219 -15.719 z" style="opacity:0.1"/>
  <path d="m 31.25 2.375 c 8.615 3.154 14.75 11.417 14.75 21.13 c 0 12.426 -10.07 22.5 -22.5 22.5 c -9.708 0 -17.971 -6.135 -21.12 -14.75 a 23 23 0 0 0 44.875 -7 a 23 23 0 0 0 -16 -21.875 z" style="opacity:0.2"/>
 </g>
 <g>
  <path d="m 24 1 c 12.703 0 23 10.297 23 23 c 0 12.703 -10.297 23 -23 23 -12.703 0 -23 -10.297 -23 -23 0 -12.703 10.297 -23 23 -23 z" style="fill:url(#linearGradient3869);fill-opacity:1"/>
 </g>
 <g>
  <path d="m 40.03 7.531 c 3.712 4.084 5.969 9.514 5.969 15.469 0 12.703 -10.297 23 -23 23 c -5.954 0 -11.384 -2.256 -15.469 -5.969 4.178 4.291 10.01 6.969 16.469 6.969 c 12.703 0 23 -10.298 23 -23 0 -6.462 -2.677 -12.291 -6.969 -16.469 z" style="opacity:0.1"/>
 </g>
 <g transform="matrix(3.543307,0,0,3.543307,-3.5818017e-8,0.00157573)">
  <path d="m 3.951 6.773 c -0.564 0 -0.564 0.564 0 0.564 l 5.706 0 c 0.277 0 0.503 0.226 0.503 0.503 l 0 1.817 c 0 0.277 -0.226 0.503 -0.503 0.503 l -5.706 0 c -0.564 0 -0.564 0.564 0 0.564 l 6.271 0 c 0.277 0 0.503 -0.226 0.503 -0.503 l 0 -2.946 c 0 -0.277 -0.226 -0.503 -0.503 -0.503 z" style="fill:#000;opacity:0.1;fill-opacity:1;stroke:none"/>
  <rect rx="0.5" y="7.902" x="4.516" height="1.693" width="5.08" style="fill:#000;opacity:0.1;fill-opacity:1;stroke:none"/>
  <path d="m 5.08 3.387 c -0.564 0 -0.564 0.564 0 0.564 l 4.577 0 c 0.277 0 0.503 0.226 0.503 0.503 l 0 1.252 c 0 0.277 -0.226 0.503 -0.503 0.503 l -4.577 0 c -0.564 0 -0.564 0.564 0 0.564 l 5.142 0 c 0.277 0 0.503 -0.226 0.503 -0.503 l 0 -2.381 c 0 -0.277 -0.226 -0.503 -0.503 -0.503 z" style="fill:#000;opacity:0.1;fill-opacity:1;stroke:none"/>
  <rect rx="0.5" y="4.516" x="4.516" height="1.129" width="5.08" style="fill:#000;opacity:0.1;fill-opacity:1;stroke:none"/>
  <path d="m 13,23 c -2,0 -2,2 0,2 l 20.22,0 c 0.981,0 1.781,0.8 1.781,1.781 l 0,6.438 C 35.001,34.2 34.201,35 33.22,35 L 13,35 c -2,0 -2,2 0,2 l 22.22,0 c 0.981,0 1.781,-0.8 1.781,-1.781 l 0,-10.438 C 37.001,23.8 36.201,23 35.22,23 Z" transform="scale(0.28222223,0.28222223)" style="fill:#f9f9f9;fill-opacity:1;stroke:none"/>
  <rect width="5.08" height="1.693" x="4.233" y="7.62" rx="0.5" style="fill:#f9f9f9;fill-opacity:1;stroke:none"/>
  <path d="m 4.798 3.104 c -0.564 0 -0.564 0.564 0 0.564 l 4.577 0 c 0.277 0 0.503 0.226 0.503 0.503 l 0 1.252 c 0 0.277 -0.226 0.503 -0.503 0.503 l -4.577 0 c -0.564 0 -0.564 0.564 0 0.564 l 5.142 0 c 0.277 0 0.503 -0.226 0.503 -0.503 l 0 -2.381 c 0 -0.277 -0.226 -0.503 -0.503 -0.503 z" style="fill:#f9f9f9;fill-opacity:1;stroke:none"/>
  <rect width="5.08" height="1.129" x="4.233" y="4.233" rx="0.5" style="fill:#f9f9f9;fill-opacity:1;stroke:none"/>
 </g>
</svg>

<svg xmlns="http://www.w3.org/2000/svg" viewBox="0 0 48 48">
  <defs>
    <linearGradient id="a" y1="47" x2="0" y2="1" gradientUnits="userSpaceOnUse">
      <stop stop-color="#ef1b1b"/>
      <stop offset="1" stop-color="#f02e2e"/>
    </linearGradient>
  </defs>
  <path d="M36.31 5c5.859 4.062 9.688 10.831 9.688 18.5 0 12.426-10.07 22.5-22.5 22.5-7.669 0-14.438-3.828-18.5-9.688a23.24 23.24 0 0 0 3.781 4.969 22.923 22.923 0 0 0 15.469 5.969c12.703 0 23-10.298 23-23a22.92 22.92 0 0 0-5.969-15.469A23.216 23.216 0 0 0 36.31 5zm4.969 3.781A22.911 22.911 0 0 1 47.498 24.5c0 12.703-10.297 23-23 23a22.909 22.909 0 0 1-15.719-6.219C12.939 45.425 18.662 48 24.998 48c12.703 0 23-10.298 23-23 0-6.335-2.575-12.06-6.719-16.219z" opacity=".05"/>
  <path d="M41.28 8.781a22.923 22.923 0 0 1 5.969 15.469c0 12.703-10.297 23-23 23A22.92 22.92 0 0 1 8.78 41.281 22.911 22.911 0 0 0 24.499 47.5c12.703 0 23-10.298 23-23A22.909 22.909 0 0 0 41.28 8.781z" opacity=".1"/>
  <path d="M31.25 2.375C39.865 5.529 46 13.792 46 23.505c0 12.426-10.07 22.5-22.5 22.5-9.708 0-17.971-6.135-21.12-14.75a23 23 0 0 0 44.875-7 23 23 0 0 0-16-21.875z" opacity=".2"/>
  <path d="M24 1c12.703 0 23 10.297 23 23S36.703 47 24 47 1 36.703 1 24 11.297 1 24 1z" fill="url(#a)"/>
  <g>
    <path d="M40.03 7.531A22.922 22.922 0 0 1 45.999 23c0 12.703-10.297 23-23 23A22.92 22.92 0 0 1 7.53 40.031C11.708 44.322 17.54 47 23.999 47c12.703 0 23-10.298 23-23 0-6.462-2.677-12.291-6.969-16.469z" opacity=".1"/>
  </g>
  <g transform="matrix(3.5433 0 0 3.5433 0 .002)">
    <path d="M3.951 6.773c-.564 0-.564.564 0 .564h5.706c.277 0 .503.226.503.503v1.817a.504.504 0 0 1-.503.503H3.951c-.564 0-.564.564 0 .564h6.271a.504.504 0 0 0 .503-.503V7.275a.504.504 0 0 0-.503-.503z" opacity=".1"/>
    <rect rx=".5" y="7.902" x="4.516" height="1.693" width="5.08" opacity=".1"/>
    <path d="M5.08 3.387c-.564 0-.564.564 0 .564h4.577c.277 0 .503.226.503.503v1.252a.504.504 0 0 1-.503.503H5.08c-.564 0-.564.564 0 .564h5.142a.504.504 0 0 0 .503-.503V3.889a.504.504 0 0 0-.503-.503z" opacity=".1"/>
    <rect rx=".5" y="4.516" x="4.516" height="1.129" width="5.08" opacity=".1"/>
    <path d="M3.669 6.491c-.565 0-.565.565 0 .565h5.706c.277 0 .503.225.503.502v1.817a.504.504 0 0 1-.503.503H3.67c-.565 0-.565.564 0 .564h6.27a.504.504 0 0 0 .504-.502V6.994a.504.504 0 0 0-.503-.503z" fill="#f9f9f9"/>
    <rect width="5.08" height="1.693" x="4.233" y="7.62" rx=".5" fill="#f9f9f9"/>
    <path d="M4.798 3.104c-.564 0-.564.564 0 .564h4.577c.277 0 .503.226.503.503v1.252a.504.504 0 0 1-.503.503H4.798c-.564 0-.564.564 0 .564H9.94a.504.504 0 0 0 .503-.503V3.606a.504.504 0 0 0-.503-.503z" fill="#f9f9f9"/>
    <rect width="5.08" height="1.129" x="4.233" y="4.233" rx=".5" fill="#f9f9f9"/>
  </g>
</svg>
